static/figs/user_logos/NTNU.svg

<?xml version="1.0" encoding="UTF-8"?>
<svg xmlns="http://www.w3.org/2000/svg" xmlns:xlink="http://www.w3.org/1999/xlink" width="200px" height="200px" viewBox="0 0 200 200" version="1.1">
<g id="surface1">
<path style=" stroke:none;fill-rule:nonzero;fill:rgb(0%,31.372549%,61.960784%);fill-opacity:1;" d="M 16.164062 91.59375 L 32.882812 91.59375 L 32.882812 108.3125 L 16.164062 108.3125 Z M 32.914062 83.222656 L 16.164062 83.222656 C 11.535156 83.222656 7.792969 86.964844 7.792969 91.59375 L 7.792969 108.3125 C 7.792969 112.914062 11.535156 116.6875 16.164062 116.6875 L 32.882812 116.6875 C 37.515625 116.6875 41.257812 112.945312 41.257812 108.3125 L 41.257812 91.59375 C 41.257812 86.964844 37.515625 83.222656 32.914062 83.222656 "/>
<path style=" stroke:none;fill-rule:nonzero;fill:rgb(0%,31.372549%,61.960784%);fill-opacity:1;" d="M 24.480469 93.035156 C 20.675781 93.035156 17.605469 96.105469 17.605469 99.90625 C 17.605469 103.710938 20.675781 106.777344 24.480469 106.777344 C 28.28125 106.777344 31.351562 103.710938 31.351562 99.90625 C 31.351562 96.105469 28.28125 93.035156 24.480469 93.035156 "/>
<path style=" stroke:none;fill-rule:nonzero;fill:rgb(0%,0%,0%);fill-opacity:1;" d="M 64.664062 83.28125 L 80.949219 106.964844 L 80.949219 88.742188 L 80.921875 84.386719 L 76.011719 84.386719 L 76.011719 83.28125 L 86.535156 83.28125 L 86.535156 84.386719 L 82.453125 84.386719 L 82.421875 88.742188 L 82.421875 116.933594 L 81.65625 117.179688 L 59.816406 85.398438 L 59.816406 110.921875 L 59.878906 115.367188 L 64.90625 115.367188 L 64.90625 116.503906 L 54.019531 116.503906 L 54.019531 115.367188 L 58.375 115.367188 L 58.40625 110.921875 L 58.40625 88.742188 L 58.375 84.386719 L 54.019531 84.386719 L 54.019531 83.28125 Z M 64.664062 83.28125 "/>
<path style=" stroke:none;fill-rule:nonzero;fill:rgb(0%,0%,0%);fill-opacity:1;" d="M 119.019531 83.28125 L 119.019531 93.925781 L 117.605469 93.925781 C 117.453125 92.269531 117.269531 90.214844 115.828125 87.761719 C 114.140625 84.878906 111.839844 84.753906 109.570312 84.664062 L 106.933594 84.664062 L 106.871094 88.894531 L 106.871094 110.613281 L 106.933594 115.429688 L 112.023438 115.429688 L 112.023438 116.5625 L 96.59375 116.5625 L 96.59375 115.429688 L 101.6875 115.429688 L 101.75 110.613281 L 101.75 88.894531 L 101.6875 84.664062 L 99.507812 84.664062 C 96.777344 84.691406 94.691406 84.691406 92.730469 87.851562 C 91.164062 90.335938 91.042969 92.332031 90.949219 93.925781 L 89.601562 93.925781 L 89.601562 83.28125 L 119.019531 83.28125 "/>
<path style=" stroke:none;fill-rule:nonzero;fill:rgb(0%,0%,0%);fill-opacity:1;" d="M 132.394531 83.28125 L 148.679688 106.964844 L 148.679688 88.742188 L 148.621094 84.386719 L 143.742188 84.386719 L 143.742188 83.28125 L 154.234375 83.28125 L 154.234375 84.386719 L 150.183594 84.386719 L 150.121094 88.742188 L 150.121094 116.933594 L 149.386719 117.179688 L 127.546875 85.398438 L 127.546875 110.921875 L 127.578125 115.367188 L 132.605469 115.367188 L 132.605469 116.503906 L 121.75 116.503906 L 121.75 115.367188 L 126.074219 115.367188 L 126.136719 110.921875 L 126.136719 88.742188 L 126.074219 84.386719 L 121.75 84.386719 L 121.75 83.28125 Z M 132.394531 83.28125 "/>
<path style=" stroke:none;fill-rule:nonzero;fill:rgb(0%,0%,0%);fill-opacity:1;" d="M 172.515625 83.28125 L 172.515625 84.417969 L 167.851562 84.417969 L 167.792969 88.40625 L 167.792969 106.378906 C 167.851562 111.042969 167.945312 115.460938 176.6875 115.460938 C 185.550781 115.460938 186.105469 111.59375 186.257812 107.421875 L 186.257812 88.40625 L 186.226562 84.417969 L 181.472656 84.417969 L 181.472656 83.28125 L 191.871094 83.28125 L 191.871094 84.417969 L 187.761719 84.417969 L 187.730469 88.40625 L 187.730469 105.550781 C 187.667969 111.71875 187.636719 116.992188 175.429688 116.992188 C 173.679688 116.992188 169.539062 116.808594 166.902344 115.734375 C 162.699219 113.957031 162.605469 110.277344 162.578125 105.765625 L 162.578125 88.4375 L 162.546875 84.449219 L 158.496094 84.449219 L 158.496094 83.3125 L 172.515625 83.3125 "/>
</g>
</svg>

<svg xmlns="http://www.w3.org/2000/svg" width="200" height="200" viewBox="0 0 200 200"><path style="stroke:none;fill-rule:nonzero;fill:#00509e;fill-opacity:1" d="M16.164 91.594h16.719v16.719H16.164Zm16.75-8.371h-16.75a8.364 8.364 0 0 0-8.371 8.37v16.72c0 4.601 3.742 8.374 8.371 8.374h16.719a8.366 8.366 0 0 0 8.375-8.374v-16.72c0-4.628-3.742-8.37-8.344-8.37"/><path style="stroke:none;fill-rule:nonzero;fill:#00509e;fill-opacity:1" d="M24.48 93.035a6.864 6.864 0 0 0-6.875 6.871 6.862 6.862 0 0 0 6.875 6.871 6.861 6.861 0 0 0 6.872-6.87 6.863 6.863 0 0 0-6.872-6.872"/><path style="stroke:none;fill-rule:nonzero;fill:#000;fill-opacity:1" d="m64.664 83.281 16.285 23.684V88.742l-.027-4.355h-4.91V83.28h10.523v1.106h-4.082l-.031 4.355v28.192l-.766.246-21.84-31.782v25.524l.063 4.445h5.027v1.137H54.02v-1.137h4.355l.031-4.445v-22.18l-.031-4.355H54.02V83.28Zm54.356 0v10.645h-1.415c-.152-1.656-.335-3.711-1.777-6.164-1.687-2.883-3.988-3.008-6.258-3.098h-2.636l-.063 4.23v21.72l.063 4.816h5.09v1.132h-15.43v-1.132h5.094l.062-4.817V88.895l-.063-4.23h-2.18c-2.73.026-4.816.026-6.777 3.187-1.566 2.484-1.687 4.48-1.78 6.074h-1.348V83.28h29.418m13.375.001 16.285 23.684V88.742l-.059-4.355h-4.879V83.28h10.492v1.106h-4.05l-.063 4.355v28.192l-.734.246-21.84-31.782v25.524l.031 4.445h5.027v1.137H121.75v-1.137h4.324l.063-4.445v-22.18l-.063-4.355h-4.324V83.28Zm40.121 0v1.137h-4.664l-.059 3.988v17.973c.059 4.664.152 9.082 8.894 9.082 8.864 0 9.418-3.867 9.57-8.04V88.407l-.03-3.988h-4.754v-1.137h10.398v1.137h-4.11l-.03 3.988v17.145c-.063 6.168-.094 11.441-12.301 11.441-1.75 0-5.89-.183-8.528-1.258-4.203-1.777-4.297-5.457-4.324-9.968v-17.33l-.031-3.988h-4.05v-1.136h14.019"/></svg>
